dist/assets/icons/sort.svg

<svg width="24" height="24" fill="none" xmlns="http://www.w3.org/2000/svg"><g clip-path="url(#a)"><path d="M3 18h6v-2H3v2ZM3 6v2h18V6H3Zm0 7h12v-2H3v2Z" fill="#fff"/></g><defs><clipPath id="a"><path fill="#fff" d="M0 0h24v24H0z"/></clipPath></defs></svg>

<svg width="24" height="24" viewBox="0 0 24 24" fill="none" xmlns="http://www.w3.org/2000/svg">
<g clip-path="url(#clip0_1615_14)">
<path d="M3 18H9V16H3V18ZM3 6V8H21V6H3ZM3 13H15V11H3V13Z" fill="white"/>
</g>
<defs>
<clipPath id="clip0_1615_14">
<rect width="24" height="24" fill="white"/>
</clipPath>
</defs>
</svg>
